assets/Japanese free of charge button/Flat/japanese_free_of_charge_button_flat.svg

<svg width="32" height="32" viewBox="0 0 32 32" fill="none" xmlns="http://www.w3.org/2000/svg">
<path d="M2 6C2 3.79086 3.79086 2 6 2H26C28.2091 2 30 3.79086 30 6V26C30 28.2091 28.2091 30 26 30H6C3.79086 30 2 28.2091 2 26V6Z" fill="#FF822D"/>
<path d="M5.49999 9.19614C5.22384 9.67443 5.38772 10.286 5.86601 10.5622C6.3443 10.8383 6.95589 10.6744 7.23204 10.1961L7.88639 9.06277C7.90955 9.02265 7.95366 8.99997 7.99999 8.99997V8.99997H8.87499C8.94402 8.99997 8.99999 9.05593 8.99999 9.12497V12.875C8.99999 12.944 8.94402 13 8.87499 13H6.99999C6.4477 13 5.99999 13.4477 5.99999 14C5.99999 14.5523 6.4477 15 6.99999 15H8.87499C8.94402 15 8.99999 15.0559 8.99999 15.125V18.875C8.99999 18.944 8.94402 19 8.87499 19H7.99999C7.4477 19 6.99999 19.4477 6.99999 20C6.99999 20.5523 7.4477 21 7.99999 21H24C24.5523 21 25 20.5523 25 20C25 19.4477 24.5523 19 24 19H23.125C23.0559 19 23 18.944 23 18.875V15.125C23 15.0559 23.0559 15 23.125 15H25C25.5523 15 26 14.5523 26 14C26 13.4477 25.5523 13 25 13H23.125C23.0559 13 23 12.944 23 12.875V9.12497C23 9.05593 23.0559 8.99997 23.125 8.99997H24C24.5523 8.99997 25 8.55225 25 7.99997C25 7.44769 24.5523 6.99997 24 6.99997H9.29385C9.19763 6.99997 9.13749 6.8958 9.1856 6.81247L9.73204 5.86601C10.0082 5.38772 9.8443 4.77613 9.36601 4.49999C8.88772 4.22384 8.27613 4.38772 7.99999 4.86601L5.49999 9.19614ZM20.875 15C20.944 15 21 15.0559 21 15.125V18.875C21 18.944 20.944 19 20.875 19H19.125C19.056 19 19 18.944 19 18.875V15.125C19 15.0559 19.056 15 19.125 15H20.875ZM20.875 8.99997C20.944 8.99997 21 9.05593 21 9.12497V12.875C21 12.944 20.944 13 20.875 13H19.125C19.056 13 19 12.944 19 12.875V9.12497C19 9.05593 19.056 8.99997 19.125 8.99997H20.875ZM16.875 8.99997C16.944 8.99997 17 9.05593 17 9.12497V12.875C17 12.944 16.944 13 16.875 13H15.125C15.056 13 15 12.944 15 12.875V9.12497C15 9.05593 15.056 8.99997 15.125 8.99997H16.875ZM16.875 15C16.944 15 17 15.0559 17 15.125V18.875C17 18.944 16.944 19 16.875 19H15.125C15.056 19 15 18.944 15 18.875V15.125C15 15.0559 15.056 15 15.125 15H16.875ZM12.875 15C12.944 15 13 15.0559 13 15.125V18.875C13 18.944 12.944 19 12.875 19H11.125C11.056 19 11 18.944 11 18.875V15.125C11 15.0559 11.056 15 11.125 15H12.875ZM12.875 8.99997C12.944 8.99997 13 9.05593 13 9.12497V12.875C13 12.944 12.944 13 12.875 13H11.125C11.056 13 11 12.944 11 12.875V9.12497C11 9.05593 11.056 8.99997 11.125 8.99997H12.875Z" fill="white"/>
<path d="M14.2588 23.4835C14.1159 22.9501 14.4324 22.4017 14.9659 22.2588C15.4994 22.1158 16.0477 22.4324 16.1907 22.9659L16.7083 24.8977C16.8512 25.4312 16.5347 25.9796 16.0012 26.1225C15.4677 26.2654 14.9194 25.9489 14.7764 25.4154L14.2588 23.4835Z" fill="white"/>
<path d="M18.9659 22.2588C18.4324 22.4017 18.1159 22.9501 18.2588 23.4835L18.7764 25.4154C18.9194 25.9489 19.4677 26.2654 20.0012 26.1225C20.5347 25.9796 20.8512 25.4312 20.7083 24.8977L20.1907 22.9659C20.0477 22.4324 19.4994 22.1158 18.9659 22.2588Z" fill="white"/>
<path d="M22.2588 23.4835C22.1159 22.9501 22.4324 22.4017 22.9659 22.2588C23.4994 22.1158 24.0477 22.4324 24.1907 22.9659L24.7083 24.8977C24.8512 25.4312 24.5347 25.9796 24.0012 26.1225C23.4677 26.2654 22.9194 25.9489 22.7764 25.4154L22.2588 23.4835Z" fill="white"/>
<path d="M10.866 22.4586C10.3877 22.1824 9.77613 22.3463 9.49999 22.8246L8.49999 24.5567C8.22384 25.035 8.38772 25.6465 8.86601 25.9227C9.3443 26.1988 9.95589 26.035 10.232 25.5567L11.232 23.8246C11.5082 23.3463 11.3443 22.7347 10.866 22.4586Z" fill="white"/>
</svg>

<svg xmlns="http://www.w3.org/2000/svg" width="32" height="32" fill="none"><path fill="#FF822D" d="M2 6a4 4 0 0 1 4-4h20a4 4 0 0 1 4 4v20a4 4 0 0 1-4 4H6a4 4 0 0 1-4-4V6Z"/><path fill="#fff" d="M5.5 9.196a1 1 0 1 0 1.732 1l.654-1.133A.13.13 0 0 1 8 9h.875c.069 0 .125.056.125.125v3.75a.125.125 0 0 1-.125.125H7a1 1 0 1 0 0 2h1.875c.069 0 .125.056.125.125v3.75a.125.125 0 0 1-.125.125H8a1 1 0 1 0 0 2h16a1 1 0 1 0 0-2h-.875a.125.125 0 0 1-.125-.125v-3.75c0-.07.056-.125.125-.125H25a1 1 0 1 0 0-2h-1.875a.125.125 0 0 1-.125-.125v-3.75c0-.07.056-.125.125-.125H24a1 1 0 1 0 0-2H9.294a.125.125 0 0 1-.108-.188l.546-.946a1 1 0 1 0-1.732-1l-2.5 4.33ZM20.875 15c.069 0 .125.056.125.125v3.75a.125.125 0 0 1-.125.125h-1.75a.125.125 0 0 1-.125-.125v-3.75c0-.07.056-.125.125-.125h1.75Zm0-6c.069 0 .125.056.125.125v3.75a.125.125 0 0 1-.125.125h-1.75a.125.125 0 0 1-.125-.125v-3.75c0-.07.056-.125.125-.125h1.75Zm-4 0c.069 0 .125.056.125.125v3.75a.125.125 0 0 1-.125.125h-1.75a.125.125 0 0 1-.125-.125v-3.75c0-.07.056-.125.125-.125h1.75Zm0 6c.069 0 .125.056.125.125v3.75a.125.125 0 0 1-.125.125h-1.75a.125.125 0 0 1-.125-.125v-3.75c0-.07.056-.125.125-.125h1.75Zm-4 0c.069 0 .125.056.125.125v3.75a.125.125 0 0 1-.125.125h-1.75a.125.125 0 0 1-.125-.125v-3.75c0-.07.056-.125.125-.125h1.75Zm0-6c.069 0 .125.056.125.125v3.75a.125.125 0 0 1-.125.125h-1.75a.125.125 0 0 1-.125-.125v-3.75c0-.07.056-.125.125-.125h1.75ZM14.259 23.483a1 1 0 1 1 1.932-.517l.517 1.932a1 1 0 1 1-1.932.517l-.517-1.931ZM18.966 22.259a1 1 0 0 0-.707 1.224l.517 1.932a1 1 0 0 0 1.932-.517l-.517-1.932a1 1 0 0 0-1.225-.707ZM22.259 23.483a1 1 0 1 1 1.932-.517l.517 1.932a1 1 0 1 1-1.932.517l-.517-1.931ZM10.866 22.459a1 1 0 0 0-1.366.366l-1 1.732a1 1 0 0 0 1.732 1l1-1.732a1 1 0 0 0-.366-1.366Z"/></svg>
